exports/maximum-antarctic-ozone-hole-area_v6_850x600.svg

<svg xmlns="http://www.w3.org/2000/svg" version="1.1" style="background-color:#fff;-webkit-font-smoothing:antialiased" width="850" height="600" font-family="'Helvetica Neue',Helvetica,Arial,sans-serif" font-size="18" text-rendering="optimizeLegibility"><g class="ChartTab"><g class="HeaderView"><g opacity=".8" transform="matrix(.27 0 0 .27 778 15)"><a xmlns:xlink="http://www.w3.org/1999/xlink" xlink:href="https://ourworldindata.org" target="_blank"><g><path fill="#1B2543" d="M0 0h211.2v130.1H0z"/><path fill="#E63912" d="M0 112.2h211.2v17.9H0z"/><g><path fill="none" d="M1.2 12.3h210.2v99.2H1.2z"/><path fill="#FFF" d="M37.8 32.2c0 12.7-7.7 19.4-17.1 19.4-9.7 0-16.6-7.5-16.6-18.7 0-11.7 7.3-19.3 17.1-19.3 10.1.1 16.6 7.7 16.6 18.6zm-28.6.6c0 7.9 4.3 14.9 11.8 14.9 7.5 0 11.8-6.9 11.8-15.3 0-7.3-3.8-14.9-11.8-14.9-7.9 0-11.8 7.3-11.8 15.3zM62.7 43.8c0 2.7.1 5.1.2 7.2h-4.3l-.3-4.3h-.1c-1.3 2.1-4 4.9-8.8 4.9-4.2 0-9.1-2.3-9.1-11.6V24.6h4.8v14.6c0 5 1.5 8.4 5.9 8.4 3.2 0 5.5-2.2 6.3-4.4.3-.7.4-1.6.4-2.5V24.6h4.8v19.2zM67.3 32.8c0-3.1-.1-5.8-.2-8.2h4.2l.2 5.2h.2c1.2-3.5 4.1-5.8 7.3-5.8.5 0 .9.1 1.4.2v4.5c-.5-.1-1-.2-1.6-.2-3.4 0-5.8 2.6-6.5 6.2-.1.7-.2 1.4-.2 2.2V51h-4.8V32.8zM95.4 51L86 14.2h5l4.4 18.6c1.1 4.6 2.1 9.2 2.7 12.7h.1c.6-3.7 1.8-8 3-12.8l4.9-18.5h5l4.5 18.7c1 4.4 2 8.7 2.6 12.6h.1c.8-4 1.8-8.1 3-12.7l4.9-18.5h4.9L120.6 51h-5L111 31.9c-1.1-4.7-1.9-8.3-2.4-12h-.1c-.7 3.7-1.5 7.3-2.8 12L100.4 51h-5zM154.9 37.6c0 9.8-6.8 14-13.2 14-7.2 0-12.7-5.2-12.7-13.6 0-8.8 5.8-14 13.1-14 7.7 0 12.8 5.5 12.8 13.6zm-21 .3c0 5.8 3.3 10.1 8 10.1 4.6 0 8-4.3 8-10.3 0-4.5-2.2-10.1-7.9-10.1s-8.1 5.2-8.1 10.3zM158.2 32.8c0-3.1-.1-5.8-.2-8.2h4.2l.2 5.2h.2c1.2-3.5 4.1-5.8 7.3-5.8.5 0 .9.1 1.4.2v4.5c-.5-.1-1-.2-1.6-.2-3.4 0-5.8 2.6-6.5 6.2-.1.7-.2 1.4-.2 2.2V51h-4.8V32.8zM173.5 12.3h4.8V51h-4.8V12.3zM206.5 12.3v31.9c0 2.3.1 5 .2 6.8h-4.3l-.2-4.6h-.2c-1.5 2.9-4.7 5.2-9 5.2-6.4 0-11.3-5.4-11.3-13.4-.1-8.8 5.4-14.2 11.9-14.2 4 0 6.8 1.9 8 4h.1V12.3h4.8zm-4.8 23.1c0-.6-.1-1.4-.2-2a7 7 0 00-6.9-5.6c-5 0-7.9 4.4-7.9 10.2 0 5.3 2.6 9.8 7.8 9.8 3.2 0 6.2-2.1 7.1-5.7.2-.7.2-1.3.2-2.1v-4.6zM42.8 64c.1 1.6-1.1 2.9-3.1 2.9-1.7 0-2.9-1.3-2.9-2.9 0-1.7 1.3-3 3-3 1.9 0 3 1.3 3 3zm-5.4 33.8V71.4h4.8v26.4h-4.8zM47.5 78.6c0-2.7-.1-5-.2-7.1h4.3l.3 4.4h.1c1.3-2.5 4.4-5 8.8-5 3.7 0 9.4 2.2 9.4 11.2v15.8h-4.8V82.6c0-4.3-1.6-7.8-6.1-7.8-3.2 0-5.6 2.2-6.5 4.9-.2.6-.3 1.4-.3 2.2v15.9h-4.8V78.6zM84 61.6c2.9-.4 6.3-.8 10.1-.8 6.8 0 11.7 1.6 14.9 4.6 3.3 3 5.2 7.3 5.2 13.2 0 6-1.9 10.9-5.3 14.3-3.4 3.4-9.1 5.3-16.3 5.3-3.4 0-6.2-.2-8.6-.4V61.6zm4.8 32.5c1.2.2 3 .3 4.8.3 10.2 0 15.7-5.7 15.7-15.6.1-8.7-4.9-14.2-14.9-14.2-2.5 0-4.3.2-5.6.5v29zM132.1 97.8l-.4-3.3h-.2a9.79 9.79 0 01-8.1 3.9c-5.4 0-8.1-3.8-8.1-7.6 0-6.4 5.7-9.9 15.9-9.8v-.5c0-2.2-.6-6.1-6-6.1-2.5 0-5 .8-6.9 2l-1.1-3.2c2.2-1.4 5.4-2.3 8.7-2.3 8.1 0 10.1 5.5 10.1 10.8v9.9c0 2.3.1 4.5.4 6.3h-4.3zm-.7-13.4c-5.3-.1-11.2.8-11.2 5.9 0 3.1 2.1 4.6 4.5 4.6 3.4 0 5.6-2.2 6.4-4.4.2-.5.3-1 .3-1.5v-4.6zM146.6 63.9v7.6h6.9v3.7h-6.9v14.2c0 3.3.9 5.1 3.6 5.1 1.3 0 2.2-.2 2.8-.3l.2 3.6c-.9.4-2.4.7-4.3.7-2.2 0-4-.7-5.2-2-1.4-1.4-1.9-3.8-1.9-6.9V75.1h-4.1v-3.7h4.1v-6.3l4.8-1.2zM171.4 97.8l-.4-3.3h-.2a9.79 9.79 0 01-8.1 3.9c-5.4 0-8.1-3.8-8.1-7.6 0-6.4 5.7-9.9 15.9-9.8v-.5c0-2.2-.6-6.1-6-6.1-2.5 0-5 .8-6.9 2l-1.1-3.2c2.2-1.4 5.4-2.3 8.7-2.3 8.1 0 10.1 5.5 10.1 10.8v9.9c0 2.3.1 4.5.4 6.3h-4.3zm-.7-13.4c-5.3-.1-11.2.8-11.2 5.9 0 3.1 2.1 4.6 4.5 4.6 3.4 0 5.6-2.2 6.4-4.4.2-.5.3-1 .3-1.5v-4.6z"/></g></g></a></g><a href="https://ourworldindata.org/grapher/antarctic-ozone-hole-area" target="_blank"><text font-size="25.2" x="15" y="35.2" fill="#555"><tspan x="15" y="35.16">Antarctic ozone hole area</tspan></text></a><text font-size="14.4" x="15" y="53.7" fill="#666"><tspan x="15" y="53.72">Annual maximum and mean Antarctic stratospheric ozone hole area, resultant from the emission of ozone-depleting</tspan><tspan x="15" y="69.56">substances.</tspan></text></g><g class="LineChart"><defs><clipPath id="a"><path d="M112.71 0h830v928.8h-830z"/></clipPath></defs><g class="AxisBoxView"><g class="HorizontalAxis" fill="#666" text-anchor="middle" font-size="16.2"><text x="122.7" y="556.5">1979</text><text x="204.5" y="556.5">1985</text><text x="272.6" y="556.5">1990</text><text x="340.7" y="556.5">1995</text><text x="408.8" y="556.5">2000</text><text x="476.9" y="556.5">2005</text><text x="545.1" y="556.5">2010</text><text x="640.4" y="556.5">2017</text></g><g class="VerticalAxis" fill="#666" dominant-baseline="middle" text-anchor="end" font-size="16.2"><text x="117.71" y="535.3">0 km²</text><text x="117.71" y="461.2">5 million km²</text><text x="117.71" y="387.1">10 million km²</text><text x="117.71" y="313">15 million km²</text><text x="117.71" y="238.8">20 million km²</text><text x="117.71" y="164.7">25 million km²</text></g><g class="AxisGridLines"><path stroke="#ccc" d="M122.71 535.3h517.72"/><path stroke="#ddd" stroke-dasharray="3,2" d="M122.71 461.2h517.72M122.71 387.1h517.72M122.71 313h517.72M122.71 238.8h517.72M122.71 164.7h517.72"/></g></g><g clip-path="url(#a)"><g class="HeightedLegend clickable"><g class="legendMark"><text font-size="13.5" x="645.4" y="248.9" fill="#ca2628"><tspan x="645.43" y="248.85">Maximum ozone hole area</tspan></text></g><g class="legendMark"><text font-size="13.5" x="645.4" y="281.4" fill="#3360a9"><tspan x="645.43" y="281.45">Mean ozone hole area</tspan></text></g></g><g class="Lines"><g class="key-World_0"><path stroke="#ca2628" stroke-linecap="round" d="M123 519l13-33 14 3 14-114 13-20 14-38 14-60 13 65 14-119 13 128 14-117 14 9 13-23 14-34 13-13 14 9 27-25 14 26 14-41 13 31 14-61 13 51 14 68 14-97 13 83 14-66 14-34 13 65 14-27 13 39 14 26 14-52 13 75 14-43 14-2 13-61 14 77 13 51" fill="none" stroke-width="1.5"/><g fill="#ca2628"><circle cx="123" cy="519" r="2"/><circle cx="136" cy="486" r="2"/><circle cx="150" cy="489" r="2"/><circle cx="164" cy="375" r="2"/><circle cx="177" cy="355" r="2"/><circle cx="191" cy="317" r="2"/><circle cx="205" cy="257" r="2"/><circle cx="218" cy="322" r="2"/><circle cx="232" cy="203" r="2"/><circle cx="245" cy="331" r="2"/><circle cx="259" cy="214" r="2"/><circle cx="273" cy="223" r="2"/><circle cx="286" cy="200" r="2"/><circle cx="300" cy="166" r="2"/><circle cx="313" cy="153" r="2"/><circle cx="327" cy="162" r="2"/><circle cx="354" cy="137" r="2"/><circle cx="368" cy="163" r="2"/><circle cx="382" cy="122" r="2"/><circle cx="395" cy="153" r="2"/><circle cx="409" cy="92" r="2"/><circle cx="422" cy="143" r="2"/><circle cx="436" cy="211" r="2"/><circle cx="450" cy="114" r="2"/><circle cx="463" cy="197" r="2"/><circle cx="477" cy="131" r="2"/><circle cx="491" cy="97" r="2"/><circle cx="504" cy="162" r="2"/><circle cx="518" cy="135" r="2"/><circle cx="531" cy="174" r="2"/><circle cx="545" cy="200" r="2"/><circle cx="559" cy="148" r="2"/><circle cx="572" cy="223" r="2"/><circle cx="586" cy="180" r="2"/><circle cx="600" cy="178" r="2"/><circle cx="613" cy="117" r="2"/><circle cx="627" cy="194" r="2"/><circle cx="640" cy="245" r="2"/></g></g><g class="key-World_1"><path stroke="#3360a9" stroke-linecap="round" d="M123 534l13-19 14 11 14-62 13-46 14-32 14-61 13 43 14-119 13 138 14-129 14-7 13 6 14-52 13-28 14 9 27 11 14 11 14-57 13 39 14-22 13-3 14 192 14-204 13 93 14-72 14-33 13 68 14-47 13 47 14 39 14-79 13 103 14-48 14 2 13-70 14 73 13 48" fill="none" stroke-width="1.5"/><g fill="#3360a9"><circle cx="123" cy="534" r="2"/><circle cx="136" cy="515" r="2"/><circle cx="150" cy="526" r="2"/><circle cx="164" cy="464" r="2"/><circle cx="177" cy="418" r="2"/><circle cx="191" cy="386" r="2"/><circle cx="205" cy="325" r="2"/><circle cx="218" cy="368" r="2"/><circle cx="232" cy="249" r="2"/><circle cx="245" cy="387" r="2"/><circle cx="259" cy="258" r="2"/><circle cx="273" cy="251" r="2"/><circle cx="286" cy="257" r="2"/><circle cx="300" cy="205" r="2"/><circle cx="313" cy="177" r="2"/><circle cx="327" cy="186" r="2"/><circle cx="354" cy="197" r="2"/><circle cx="368" cy="208" r="2"/><circle cx="382" cy="151" r="2"/><circle cx="395" cy="190" r="2"/><circle cx="409" cy="168" r="2"/><circle cx="422" cy="165" r="2"/><circle cx="436" cy="357" r="2"/><circle cx="450" cy="153" r="2"/><circle cx="463" cy="246" r="2"/><circle cx="477" cy="174" r="2"/><circle cx="491" cy="141" r="2"/><circle cx="504" cy="209" r="2"/><circle cx="518" cy="162" r="2"/><circle cx="531" cy="209" r="2"/><circle cx="545" cy="248" r="2"/><circle cx="559" cy="169" r="2"/><circle cx="572" cy="272" r="2"/><circle cx="586" cy="224" r="2"/><circle cx="600" cy="226" r="2"/><circle cx="613" cy="156" r="2"/><circle cx="627" cy="229" r="2"/><circle cx="640" cy="277" r="2"/></g></g></g></g></g><g class="SourcesFooter" fill="#777"><g class="clickable" fill="#777"><text font-size="12.6" x="15" y="581.6"><tspan x="15" y="581.58">Source: NASA Ozone Watch</tspan></text></g><text font-size="12.6" x="775.4" y="581.6"><tspan x="775.4" y="581.58"><a class="cclogo" href="http://creativecommons.org/licenses/by-sa/4.0/deed.en_US" target="_blank" fill="#777">CC BY-SA</a></tspan></text></g></g></svg>

<svg xmlns="http://www.w3.org/2000/svg" version="1.1" style="font-family: 'Helvetica Neue', Helvetica, Arial, sans-serif; font-size: 18px; background-color: white; text-rendering: optimizeLegibility; -webkit-font-smoothing: antialiased;" width="850" height="600"><g class="ChartTab"><g class="HeaderView"><g opacity="0.8" transform="translate(778, 15) scale(0.27)"><a xmlns:xlink="http://www.w3.org/1999/xlink" xlink:href="https://ourworldindata.org" target="_blank"><g><rect x="0" y="0" fill="#1B2543" width="211.2" height="130.1"/><rect x="0" y="112.2" fill="#E63912" width="211.2" height="17.9"/><g><rect x="1.2" y="12.3" fill="none" width="210.2" height="99.2"/><path fill="#FFFFFF" d="M37.8,32.2c0,12.7-7.7,19.4-17.1,19.4c-9.7,0-16.6-7.5-16.6-18.7c0-11.7,7.3-19.3,17.1-19.3 C31.3,13.7,37.8,21.3,37.8,32.2z M9.2,32.8c0,7.9,4.3,14.9,11.8,14.9c7.5,0,11.8-6.9,11.8-15.3c0-7.3-3.8-14.9-11.8-14.9 C13.1,17.5,9.2,24.8,9.2,32.8z"/><path fill="#FFFFFF" d="M62.7,43.8c0,2.7,0.1,5.1,0.2,7.2h-4.3l-0.3-4.3h-0.1c-1.3,2.1-4,4.9-8.8,4.9c-4.2,0-9.1-2.3-9.1-11.6 V24.6h4.8v14.6c0,5,1.5,8.4,5.9,8.4c3.2,0,5.5-2.2,6.3-4.4c0.3-0.7,0.4-1.6,0.4-2.5V24.6h4.8V43.8z"/><path fill="#FFFFFF" d="M67.3,32.8c0-3.1-0.1-5.8-0.2-8.2h4.2l0.2,5.2h0.2c1.2-3.5,4.1-5.8,7.3-5.8c0.5,0,0.9,0.1,1.4,0.2v4.5 c-0.5-0.1-1-0.2-1.6-0.2c-3.4,0-5.8,2.6-6.5,6.2c-0.1,0.7-0.2,1.4-0.2,2.2V51h-4.8V32.8z"/><path fill="#FFFFFF" d="M95.4,51l-9.4-36.8h5l4.4,18.6c1.1,4.6,2.1,9.2,2.7,12.7h0.1c0.6-3.7,1.8-8,3-12.8l4.9-18.5h5l4.5,18.7 c1,4.4,2,8.7,2.6,12.6h0.1c0.8-4,1.8-8.1,3-12.7l4.9-18.5h4.9L120.6,51h-5L111,31.9c-1.1-4.7-1.9-8.3-2.4-12h-0.1 c-0.7,3.7-1.5,7.3-2.8,12L100.4,51H95.4z"/><path fill="#FFFFFF" d="M154.9,37.6c0,9.8-6.8,14-13.2,14c-7.2,0-12.7-5.2-12.7-13.6c0-8.8,5.8-14,13.1-14 C149.8,24,154.9,29.5,154.9,37.6z M133.9,37.9c0,5.8,3.3,10.1,8,10.1c4.6,0,8-4.3,8-10.3c0-4.5-2.2-10.1-7.9-10.1 C136.3,27.6,133.9,32.8,133.9,37.9z"/><path fill="#FFFFFF" d="M158.2,32.8c0-3.1-0.1-5.8-0.2-8.2h4.2l0.2,5.2h0.2c1.2-3.5,4.1-5.8,7.3-5.8c0.5,0,0.9,0.1,1.4,0.2v4.5 c-0.5-0.1-1-0.2-1.6-0.2c-3.4,0-5.8,2.6-6.5,6.2c-0.1,0.7-0.2,1.4-0.2,2.2V51h-4.8V32.8z"/><path fill="#FFFFFF" d="M173.5,12.3h4.8V51h-4.8V12.3z"/><path fill="#FFFFFF" d="M206.5,12.3v31.9c0,2.3,0.1,5,0.2,6.8h-4.3l-0.2-4.6H202c-1.5,2.9-4.7,5.2-9,5.2 c-6.4,0-11.3-5.4-11.3-13.4c-0.1-8.8,5.4-14.2,11.9-14.2c4,0,6.8,1.9,8,4h0.1V12.3H206.5z M201.7,35.4c0-0.6-0.1-1.4-0.2-2 c-0.7-3.1-3.3-5.6-6.9-5.6c-5,0-7.9,4.4-7.9,10.2c0,5.3,2.6,9.8,7.8,9.8c3.2,0,6.2-2.1,7.1-5.7c0.2-0.7,0.2-1.3,0.2-2.1V35.4z"/><path fill="#FFFFFF" d="M42.8,64c0.1,1.6-1.1,2.9-3.1,2.9c-1.7,0-2.9-1.3-2.9-2.9c0-1.7,1.3-3,3-3C41.7,61,42.8,62.3,42.8,64z M37.4,97.8V71.4h4.8v26.4H37.4z"/><path fill="#FFFFFF" d="M47.5,78.6c0-2.7-0.1-5-0.2-7.1h4.3l0.3,4.4h0.1c1.3-2.5,4.4-5,8.8-5c3.7,0,9.4,2.2,9.4,11.2v15.8h-4.8 V82.6c0-4.3-1.6-7.8-6.1-7.8c-3.2,0-5.6,2.2-6.5,4.9c-0.2,0.6-0.3,1.4-0.3,2.2v15.9h-4.8V78.6z"/><path fill="#FFFFFF" d="M84,61.6c2.9-0.4,6.3-0.8,10.1-0.8c6.8,0,11.7,1.6,14.9,4.6c3.3,3,5.2,7.3,5.2,13.2c0,6-1.9,10.9-5.3,14.3 c-3.4,3.4-9.1,5.3-16.3,5.3c-3.4,0-6.2-0.2-8.6-0.4V61.6z M88.8,94.1c1.2,0.2,3,0.3,4.8,0.3c10.2,0,15.7-5.7,15.7-15.6 c0.1-8.7-4.9-14.2-14.9-14.2c-2.5,0-4.3,0.2-5.6,0.5V94.1z"/><path fill="#FFFFFF" d="M132.1,97.8l-0.4-3.3h-0.2c-1.5,2.1-4.3,3.9-8.1,3.9c-5.4,0-8.1-3.8-8.1-7.6c0-6.4,5.7-9.9,15.9-9.8v-0.5 c0-2.2-0.6-6.1-6-6.1c-2.5,0-5,0.8-6.9,2l-1.1-3.2c2.2-1.4,5.4-2.3,8.7-2.3c8.1,0,10.1,5.5,10.1,10.8v9.9c0,2.3,0.1,4.5,0.4,6.3 H132.1z M131.4,84.4c-5.3-0.1-11.2,0.8-11.2,5.9c0,3.1,2.1,4.6,4.5,4.6c3.4,0,5.6-2.2,6.4-4.4c0.2-0.5,0.3-1,0.3-1.5V84.4z"/><path fill="#FFFFFF" d="M146.6,63.9v7.6h6.9v3.7h-6.9v14.2c0,3.3,0.9,5.1,3.6,5.1c1.3,0,2.2-0.2,2.8-0.3l0.2,3.6 c-0.9,0.4-2.4,0.7-4.3,0.7c-2.2,0-4-0.7-5.2-2c-1.4-1.4-1.9-3.8-1.9-6.9V75.1h-4.1v-3.7h4.1v-6.3L146.6,63.9z"/><path fill="#FFFFFF" d="M171.4,97.8l-0.4-3.3h-0.2c-1.5,2.1-4.3,3.9-8.1,3.9c-5.4,0-8.1-3.8-8.1-7.6c0-6.4,5.7-9.9,15.9-9.8v-0.5 c0-2.2-0.6-6.1-6-6.1c-2.5,0-5,0.8-6.9,2l-1.1-3.2c2.2-1.4,5.4-2.3,8.7-2.3c8.1,0,10.1,5.5,10.1,10.8v9.9c0,2.3,0.1,4.5,0.4,6.3 H171.4z M170.7,84.4c-5.3-0.1-11.2,0.8-11.2,5.9c0,3.1,2.1,4.6,4.5,4.6c3.4,0,5.6-2.2,6.4-4.4c0.2-0.5,0.3-1,0.3-1.5V84.4z"/></g></g></a></g><a href="https://ourworldindata.org/grapher/antarctic-ozone-hole-area" target="_blank"><text font-size="25.20" x="15.0" y="35.2" fill="#555"><tspan x="15" y="35.160000000000004">Antarctic ozone hole area</tspan></text></a><text font-size="14.40" x="15.0" y="53.7" fill="#666"><tspan x="15" y="53.72">Annual maximum and mean Antarctic stratospheric ozone hole area, resultant from the emission of ozone-depleting</tspan><tspan x="15" y="69.56">substances.</tspan></text></g><g class="LineChart"><defs><clipPath id="boundsClip-70"><rect x="112.708" y="0" width="830" height="928.8"></rect></clipPath></defs><g class="AxisBoxView"><g class="HorizontalAxis"><text x="122.7" y="556.5" fill="#666" text-anchor="middle" font-size="16.2">1979</text><text x="204.5" y="556.5" fill="#666" text-anchor="middle" font-size="16.2">1985</text><text x="272.6" y="556.5" fill="#666" text-anchor="middle" font-size="16.2">1990</text><text x="340.7" y="556.5" fill="#666" text-anchor="middle" font-size="16.2">1995</text><text x="408.8" y="556.5" fill="#666" text-anchor="middle" font-size="16.2">2000</text><text x="476.9" y="556.5" fill="#666" text-anchor="middle" font-size="16.2">2005</text><text x="545.1" y="556.5" fill="#666" text-anchor="middle" font-size="16.2">2010</text><text x="640.4" y="556.5" fill="#666" text-anchor="middle" font-size="16.2">2017</text></g><g class="VerticalAxis"><text x="117.71" y="535.3" fill="#666" dominant-baseline="middle" text-anchor="end" font-size="16.2">0 km²</text><text x="117.71" y="461.2" fill="#666" dominant-baseline="middle" text-anchor="end" font-size="16.2">5 million km²</text><text x="117.71" y="387.1" fill="#666" dominant-baseline="middle" text-anchor="end" font-size="16.2">10 million km²</text><text x="117.71" y="313" fill="#666" dominant-baseline="middle" text-anchor="end" font-size="16.2">15 million km²</text><text x="117.71" y="238.8" fill="#666" dominant-baseline="middle" text-anchor="end" font-size="16.2">20 million km²</text><text x="117.71" y="164.7" fill="#666" dominant-baseline="middle" text-anchor="end" font-size="16.2">25 million km²</text></g><g class="AxisGridLines"><line x1="122.71" y1="535.3" x2="640.43" y2="535.3" stroke="#ccc"></line><line x1="122.71" y1="461.2" x2="640.43" y2="461.2" stroke="#ddd" stroke-dasharray="3,2"></line><line x1="122.71" y1="387.1" x2="640.43" y2="387.1" stroke="#ddd" stroke-dasharray="3,2"></line><line x1="122.71" y1="313" x2="640.43" y2="313" stroke="#ddd" stroke-dasharray="3,2"></line><line x1="122.71" y1="238.8" x2="640.43" y2="238.8" stroke="#ddd" stroke-dasharray="3,2"></line><line x1="122.71" y1="164.7" x2="640.43" y2="164.7" stroke="#ddd" stroke-dasharray="3,2"></line></g></g><g clip-path="url(#boundsClip-70)"><g class="HeightedLegend clickable"><g class="legendMark"><rect x="640.43" y="238.05" width="194.57000000000002" height="13.5" fill="#fff" opacity="0"></rect><text font-size="13.50" x="645.4" y="248.9" fill="#ca2628"><tspan x="645.43" y="248.85000000000002">Maximum ozone hole area</tspan></text></g><g class="legendMark"><rect x="640.43" y="270.65" width="170" height="13.5" fill="#fff" opacity="0"></rect><text font-size="13.50" x="645.4" y="281.4" fill="#3360a9"><tspan x="645.43" y="281.45">Mean ozone hole area</tspan></text></g></g><g class="Lines"><rect x="123" y="92" width="518" height="443" fill="rgba(255,255,255,0)" opacity="0"></rect><g class="key-World_0"><path stroke="#ca2628" stroke-linecap="round" d="M123 519L136 486L150 489L164 375L177 355L191 317L205 257L218 322L232 203L245 331L259 214L273 223L286 200L300 166L313 153L327 162L354 137L368 163L382 122L395 153L409 92L422 143L436 211L450 114L463 197L477 131L491 97L504 162L518 135L531 174L545 200L559 148L572 223L586 180L600 178L613 117L627 194L640 245" fill="none" stroke-width="1.5"></path><g fill="#ca2628"><circle cx="123" cy="519" r="2"></circle><circle cx="136" cy="486" r="2"></circle><circle cx="150" cy="489" r="2"></circle><circle cx="164" cy="375" r="2"></circle><circle cx="177" cy="355" r="2"></circle><circle cx="191" cy="317" r="2"></circle><circle cx="205" cy="257" r="2"></circle><circle cx="218" cy="322" r="2"></circle><circle cx="232" cy="203" r="2"></circle><circle cx="245" cy="331" r="2"></circle><circle cx="259" cy="214" r="2"></circle><circle cx="273" cy="223" r="2"></circle><circle cx="286" cy="200" r="2"></circle><circle cx="300" cy="166" r="2"></circle><circle cx="313" cy="153" r="2"></circle><circle cx="327" cy="162" r="2"></circle><circle cx="354" cy="137" r="2"></circle><circle cx="368" cy="163" r="2"></circle><circle cx="382" cy="122" r="2"></circle><circle cx="395" cy="153" r="2"></circle><circle cx="409" cy="92" r="2"></circle><circle cx="422" cy="143" r="2"></circle><circle cx="436" cy="211" r="2"></circle><circle cx="450" cy="114" r="2"></circle><circle cx="463" cy="197" r="2"></circle><circle cx="477" cy="131" r="2"></circle><circle cx="491" cy="97" r="2"></circle><circle cx="504" cy="162" r="2"></circle><circle cx="518" cy="135" r="2"></circle><circle cx="531" cy="174" r="2"></circle><circle cx="545" cy="200" r="2"></circle><circle cx="559" cy="148" r="2"></circle><circle cx="572" cy="223" r="2"></circle><circle cx="586" cy="180" r="2"></circle><circle cx="600" cy="178" r="2"></circle><circle cx="613" cy="117" r="2"></circle><circle cx="627" cy="194" r="2"></circle><circle cx="640" cy="245" r="2"></circle></g></g><g class="key-World_1"><path stroke="#3360a9" stroke-linecap="round" d="M123 534L136 515L150 526L164 464L177 418L191 386L205 325L218 368L232 249L245 387L259 258L273 251L286 257L300 205L313 177L327 186L354 197L368 208L382 151L395 190L409 168L422 165L436 357L450 153L463 246L477 174L491 141L504 209L518 162L531 209L545 248L559 169L572 272L586 224L600 226L613 156L627 229L640 277" fill="none" stroke-width="1.5"></path><g fill="#3360a9"><circle cx="123" cy="534" r="2"></circle><circle cx="136" cy="515" r="2"></circle><circle cx="150" cy="526" r="2"></circle><circle cx="164" cy="464" r="2"></circle><circle cx="177" cy="418" r="2"></circle><circle cx="191" cy="386" r="2"></circle><circle cx="205" cy="325" r="2"></circle><circle cx="218" cy="368" r="2"></circle><circle cx="232" cy="249" r="2"></circle><circle cx="245" cy="387" r="2"></circle><circle cx="259" cy="258" r="2"></circle><circle cx="273" cy="251" r="2"></circle><circle cx="286" cy="257" r="2"></circle><circle cx="300" cy="205" r="2"></circle><circle cx="313" cy="177" r="2"></circle><circle cx="327" cy="186" r="2"></circle><circle cx="354" cy="197" r="2"></circle><circle cx="368" cy="208" r="2"></circle><circle cx="382" cy="151" r="2"></circle><circle cx="395" cy="190" r="2"></circle><circle cx="409" cy="168" r="2"></circle><circle cx="422" cy="165" r="2"></circle><circle cx="436" cy="357" r="2"></circle><circle cx="450" cy="153" r="2"></circle><circle cx="463" cy="246" r="2"></circle><circle cx="477" cy="174" r="2"></circle><circle cx="491" cy="141" r="2"></circle><circle cx="504" cy="209" r="2"></circle><circle cx="518" cy="162" r="2"></circle><circle cx="531" cy="209" r="2"></circle><circle cx="545" cy="248" r="2"></circle><circle cx="559" cy="169" r="2"></circle><circle cx="572" cy="272" r="2"></circle><circle cx="586" cy="224" r="2"></circle><circle cx="600" cy="226" r="2"></circle><circle cx="613" cy="156" r="2"></circle><circle cx="627" cy="229" r="2"></circle><circle cx="640" cy="277" r="2"></circle></g></g></g></g></g><g style="fill: #777;" class="SourcesFooter"><g style="fill: #777;" class="clickable"><text font-size="12.60" x="15.0" y="581.6"><tspan x="15" y="581.58">Source: NASA Ozone Watch</tspan></text></g><text font-size="12.60" x="775.4" y="581.6"><tspan x="775.402" y="581.58"><a style="fill: #777;" class="cclogo" href="http://creativecommons.org/licenses/by-sa/4.0/deed.en_US" target="_blank">CC BY-SA</a></tspan></text></g></g></svg>
